src/assets/outline/FilterSearch.svg

<svg width="24" height="24" viewBox="0 0 24 24"  xmlns="http://www.w3.org/2000/svg">
<path d="M10.9298 22.7495C10.4498 22.7495 9.96985 22.6296 9.52985 22.3896C8.63985 21.8896 8.1098 20.9995 8.1098 19.9895V14.6396C8.1098 14.1296 7.77979 13.3795 7.46979 12.9895L3.6698 8.99954C3.0398 8.36954 2.5498 7.26953 2.5498 6.45953V4.13956C2.5498 2.52956 3.76982 1.26953 5.31982 1.26953H18.6598C20.1898 1.26953 21.4298 2.50955 21.4298 4.03955V6.25955C21.4298 7.30955 20.7998 8.51953 20.1998 9.10953C19.9098 9.39953 19.4298 9.39953 19.1398 9.10953C18.8498 8.81953 18.8498 8.33953 19.1398 8.04953C19.5098 7.67953 19.9298 6.84955 19.9298 6.25955V4.03955C19.9298 3.33955 19.3598 2.76953 18.6598 2.76953H5.31982C4.60982 2.76953 4.0498 3.36956 4.0498 4.13956V6.45953C4.0498 6.82953 4.34981 7.55955 4.73981 7.94955L8.58984 11.9995C9.09984 12.6295 9.59979 13.6896 9.59979 14.6396V19.9895C9.59979 20.6495 10.0498 20.9695 10.2498 21.0795C10.6798 21.3195 11.1898 21.3095 11.5898 21.0695L12.9898 20.1696C13.2798 19.9996 13.5598 19.4495 13.5598 19.0795C13.5598 18.6695 13.8998 18.3295 14.3098 18.3295C14.7198 18.3295 15.0598 18.6695 15.0598 19.0795C15.0598 19.9795 14.4998 21.0095 13.7898 21.4395L12.3998 22.3395C11.9498 22.6095 11.4398 22.7495 10.9298 22.7495Z" />
<path d="M16.0701 17.2701C13.8901 17.2701 12.1201 15.5001 12.1201 13.3201C12.1201 11.1401 13.8901 9.37012 16.0701 9.37012C18.2501 9.37012 20.0201 11.1401 20.0201 13.3201C20.0201 15.5001 18.2501 17.2701 16.0701 17.2701ZM16.0701 10.8701C14.7201 10.8701 13.6201 11.9701 13.6201 13.3201C13.6201 14.6701 14.7201 15.7701 16.0701 15.7701C17.4201 15.7701 18.5201 14.6701 18.5201 13.3201C18.5201 11.9701 17.4201 10.8701 16.0701 10.8701Z" />
<path d="M19.87 17.8696C19.68 17.8696 19.4901 17.7996 19.3401 17.6496L18.3401 16.6496C18.0501 16.3596 18.0501 15.8796 18.3401 15.5896C18.6301 15.2996 19.1101 15.2996 19.4001 15.5896L20.4001 16.5896C20.6901 16.8796 20.6901 17.3596 20.4001 17.6496C20.2601 17.7896 20.06 17.8696 19.87 17.8696Z" />
</svg>

<?xml version="1.0" encoding="UTF-8"?>
<svg width="24" height="24" viewBox="0 0 24 24" xmlns="http://www.w3.org/2000/svg">
 <path d="m10.93 22.75c-0.48 0-0.95995-0.1199-1.4-0.3599-0.89-0.5-1.42-1.3901-1.42-2.4001v-5.3499c0-0.51-0.33001-1.2601-0.64001-1.6501l-3.8-3.99c-0.63-0.63-1.12-1.73-1.12-2.54v-2.32c0-1.61 1.22-2.87 2.77-2.87h13.34c1.53 0 2.77 1.24 2.77 2.77v2.22c0 1.05-0.63 2.26-1.23 2.85-0.29 0.29-0.77 0.29-1.06 0s-0.29-0.77 0-1.06c0.37-0.37 0.79-1.2 0.79-1.79v-2.22c0-0.7-0.57-1.27-1.27-1.27h-13.34c-0.71 0-1.27 0.60003-1.27 1.37v2.32c0 0.37 0.30001 1.1 0.69001 1.49l3.85 4.05c0.51 0.63 1.01 1.6901 1.01 2.6401v5.3499c0 0.66 0.45001 0.98 0.65001 1.09 0.43 0.24 0.94 0.23 1.34-0.01l1.4-0.8999c0.29-0.17 0.57-0.7201 0.57-1.0901 0-0.41 0.34-0.75 0.75-0.75s0.75 0.34 0.75 0.75c0 0.9-0.56 1.93-1.27 2.36l-1.39 0.9c-0.45 0.27-0.96 0.41-1.47 0.41z"/>
 <path d="m16.07 17.27c-2.18 0-3.95-1.77-3.95-3.95s1.77-3.95 3.95-3.95 3.95 1.77 3.95 3.95-1.77 3.95-3.95 3.95zm0-6.4c-1.35 0-2.45 1.1-2.45 2.45s1.1 2.45 2.45 2.45 2.45-1.1 2.45-2.45-1.1-2.45-2.45-2.45z"/>
 <path d="m19.87 17.87c-0.19 0-0.3799-0.07-0.5299-0.22l-1-1c-0.29-0.29-0.29-0.77 0-1.06s0.77-0.29 1.06 0l1 1c0.29 0.29 0.29 0.77 0 1.06-0.14 0.14-0.3401 0.22-0.5301 0.22z"/>
</svg>
